public/themes/EC/images/deal.svg

<?xml version="1.0" encoding="UTF-8"?>
<svg width="34px" height="22px" viewBox="0 0 34 22" version="1.1" xmlns="http://www.w3.org/2000/svg" xmlns:xlink="http://www.w3.org/1999/xlink">
    <!-- Generator: Sketch 61 (89581) - https://sketch.com -->
    <title>deal(1)</title>
    <desc>Created with Sketch.</desc>
    <g id="Page-1" stroke="none" stroke-width="1" fill="none" fill-rule="evenodd">
        <g id="FavroutitesPage" transform="translate(-753.000000, -664.000000)" fill="#9A9A9F" fill-rule="nonzero">
            <g id="deal(1)" transform="translate(753.000000, 664.000000)">
                <path d="M34.0000023,5.67830006 C33.9992031,5.17155578 33.8473985,4.65764029 33.5117149,4.23401694 L30.8177465,0.849984801 C30.3665161,0.287500611 29.679942,0.001108279 28.9938327,0 C28.5855007,0 28.1697312,0.102743983 27.8023719,0.327659427 L25.1756066,1.93205626 C24.8993567,2.10501298 24.4257474,2.22372922 23.9682748,2.22066515 C23.6128686,2.22216459 23.2694155,2.15234301 23.0426382,2.04236262 L20.470326,0.819148567 C20.0554198,0.623048377 19.5929004,0.542665553 19.127791,0.541883238 C18.4598107,0.544947304 17.7833303,0.706104109 17.2397288,1.07594333 L16.9395726,1.28266996 C16.6996468,1.16512719 16.333018,0.986042346 15.9177133,0.783162096 C15.4196665,0.543447868 14.8340299,0.446766823 14.2424831,0.444876229 C13.7081121,0.446375666 13.1738739,0.52721484 12.7047802,0.721750401 L10.9527179,1.45569187 C10.6675695,1.57708102 10.2140149,1.65635556 9.76351494,1.65439978 C9.313015,1.65629037 8.86025725,1.57701582 8.57510885,1.45569187 L6.82145283,0.721359244 C6.50157397,0.587453063 6.15964823,0.530213712 5.82077718,0.529822555 C5.43057411,0.530213712 5.04269526,0.60570707 4.68217577,0.749066219 C4.32212113,0.893207682 3.98789852,1.10599725 3.72174231,1.39799617 L0.528930231,4.90837211 C0.175051372,5.29633496 -0.000725948193,5.78489042 2.25321845e-06,6.26581831 C-0.000725948193,6.8393201 0.249227144,7.41464729 0.731336454,7.81786526 L3.70965637,10.3124057 L2.29679718,11.7593617 C1.90732458,12.1584074 1.71341836,12.6757781 1.71341836,13.1873466 C1.71268789,13.731642 1.93289098,14.281218 2.36904717,14.6858702 L2.65565651,14.9532262 C2.92573069,15.2047404 3.25025799,15.3647237 3.58985951,15.4500612 C3.4195275,15.7576412 3.32642595,16.094884 3.32715642,16.4327787 C3.32642595,16.9774652 3.54662905,17.5266501 3.98198837,17.9317587 L3.9812579,17.9313675 L4.26873052,18.199897 C4.67792577,18.5806886 5.20837883,18.7703347 5.73099595,18.7700087 C6.01189435,18.7703999 6.29312478,18.7149859 6.55742162,18.606505 C6.65019114,18.975953 6.84177314,19.3271471 7.14312466,19.6078025 L7.43059728,19.8763319 C7.83979254,20.2571236 8.36938231,20.4467697 8.89286271,20.4464437 C9.30205797,20.4468349 9.7131126,20.3284446 10.0669915,20.0986397 C10.1705188,20.425582 10.3478899,20.7354438 10.6178976,20.9872839 L10.9053703,21.2558133 C11.3137022,21.636605 11.8441553,21.8262511 12.3669052,21.8259251 C12.9235887,21.8263163 13.485784,21.6116361 13.9010222,21.186057 L15.1497252,19.9059295 L16.8462054,21.44735 C17.2522796,21.8171241 17.7735022,22.0010984 18.2880177,22 C18.8532676,22.0011636 19.423498,21.7788558 19.8395995,21.341542 L20.1104042,21.0567143 C20.3441542,20.81022 20.4967557,20.5184818 20.5852752,20.2139659 L21.2424314,20.8094377 C21.649236,21.1777123 22.1697281,21.3609043 22.6835132,21.3605131 C23.2494936,21.3609043 23.8213178,21.1385965 24.2378177,20.7009567 L24.507095,20.416455 C24.8180754,20.090295 24.9931223,19.6862947 25.047177,19.2736889 C25.2206301,19.317303 25.3964074,19.3469005 25.5737121,19.3469005 C26.1396925,19.3469005 26.7099228,19.124984 27.1268212,18.6877353 L27.3968954,18.4032336 C27.7743485,18.0060785 27.9621453,17.4967265 27.9613485,16.9945458 C27.9613485,16.8386696 27.9385711,16.6835757 27.9033758,16.5303073 C28.3728015,16.4692215 28.8279499,16.2636684 29.1740592,15.8987838 L29.4448639,15.6139561 C29.822317,15.2168011 30.0093169,14.7074491 30.0093169,14.2048771 C30.0100474,13.6519111 29.7829381,13.0939252 29.3347623,12.6873824 L28.8282819,12.2280986 L33.3995548,7.26626828 C33.8099453,6.81956665 33.9992695,6.24456543 34.0000023,5.67830006 Z M4.11812116,14.3942625 C3.8759376,14.3935453 3.63906654,14.3085338 3.45399234,14.1363594 L3.16691816,13.8690034 C2.96829709,13.6846379 2.87021508,13.4393171 2.8694182,13.1874118 C2.87021508,12.9511528 2.95634397,12.7205004 3.13371504,12.5388078 L6.02743341,9.5742919 C6.21596073,9.38119058 6.46750757,9.28450954 6.72556222,9.28418357 C6.96701531,9.28457473 7.2030895,9.36991221 7.38969104,9.54247777 L7.67556991,9.81022494 C7.67556991,9.81022494 7.97154252,10.2399112 7.97227299,10.4921425 C7.97154252,10.6810063 7.91356987,10.8649806 7.80114411,11.024312 C7.7915152,11.033765 4.67792577,14.2194152 4.67792577,14.2194152 C4.51257423,14.334285 4.31707426,14.393415 4.11812116,14.3942625 Z M6.42919117,17.351216 C6.24106228,17.543535 5.98991388,17.6398249 5.73185923,17.6406072 C5.48967567,17.6402161 5.25353507,17.5548786 5.06773041,17.3827042 L4.78025779,17.1145007 L4.77952732,17.1141095 C4.5825,16.9305264 4.48355471,16.6844232 4.48355471,16.4325179 C4.48355471,16.1962589 4.57048048,15.9656065 4.74698826,15.7839139 C4.74698826,15.7839139 8.60426119,11.8420263 8.63673384,11.8040189 C8.82107757,11.6299539 9.05861269,11.5400529 9.30391735,11.5396617 C9.54610091,11.5400529 9.7822415,11.6249992 9.96804616,11.7975648 L10.2555188,12.0660943 C10.4532766,12.2496774 10.5514914,12.4954546 10.5522219,12.7476858 C10.551425,12.9839448 10.4645656,13.2149232 10.287925,13.3966158 L6.42919117,17.351216 Z M9.59059309,19.0271947 C9.40286265,19.21997 9.15178065,19.3163903 8.89365959,19.3171074 C8.65147603,19.3167162 8.41533543,19.2313788 8.22953077,19.0588132 L7.94126128,18.7906097 C7.74350349,18.6066354 7.64455819,18.3609234 7.64455819,18.1090181 C7.64455819,17.8981843 7.71760506,17.6936742 7.85739019,17.5233904 L10.5436555,14.7708817 C10.7248781,14.6104421 10.9519874,14.5258869 11.1873312,14.5258869 C11.4295147,14.5262781 11.6656553,14.6112244 11.85146,14.7837899 L12.1397295,15.0523194 C12.3367568,15.2359026 12.4357021,15.4816797 12.4364326,15.7335198 C12.4356357,15.9702352 12.3479794,16.2012136 12.1721357,16.3824498 L9.59059309,19.0271947 Z M14.6947096,18.7366952 L13.064702,20.4068064 C12.8769052,20.5994514 12.6254247,20.6958717 12.3673701,20.6965888 C12.1251865,20.6961976 11.8890459,20.6108602 11.7032412,20.4382946 L11.4157686,20.1700911 C11.2187413,19.9865079 11.119796,19.7404048 11.1190655,19.4884995 C11.119796,19.2517841 11.2067218,19.0208058 11.3833624,18.8398955 L13.0126395,17.1698494 C13.2011668,16.9772045 13.4527137,16.8804582 13.7107683,16.8800671 C13.9522214,16.8804582 14.1890925,16.9654046 14.3748971,17.1383613 L14.6631666,17.4065648 C14.860194,17.5901479 14.9583424,17.8359251 14.9591393,18.0877652 C14.9582096,18.3244154 14.8712838,18.5553938 14.6947096,18.7366952 Z M28.8550437,14.2063766 C28.8547116,14.4383329 28.7700437,14.66553 28.5985163,14.8460491 L28.3284422,15.1305509 C28.1399148,15.3285417 27.884118,15.4286779 27.6222118,15.4290691 C27.3846103,15.4286779 27.1519892,15.3467305 26.9673798,15.1791848 L22.4162281,11.0471947 L21.6292477,11.8744272 L26.5006768,16.3048703 C26.7035478,16.4892357 26.8054814,16.7395764 26.8070088,16.9951977 C26.8054814,17.2280667 26.7216103,17.4548727 26.5504815,17.635457 L26.2812042,17.9199587 C26.0926768,18.1179495 25.83688,18.2176946 25.5749738,18.2184769 C25.3373722,18.2177598 25.1040207,18.1354212 24.9208723,17.9689186 L20.3685252,13.8369937 L19.5823418,14.6642262 L23.6223647,18.3319778 C23.8170678,18.5151698 23.9168099,18.7590563 23.9168099,19.0093318 C23.9168099,19.2414837 23.8329389,19.4686157 23.66181,19.6488088 L23.3917358,19.9333105 C23.2039389,20.1313013 22.9474116,20.2314376 22.6847749,20.2321547 C22.4463765,20.2314376 22.2138219,20.149099 22.029943,19.9825963 L17.9980217,16.3281441 L17.9972912,16.3281441 L17.9965607,16.327427 L17.2119046,17.1561589 L17.2127015,17.1568761 L17.2277757,17.1708925 L19.2471895,19.000596 C19.4260879,19.181115 19.518791,19.4124846 19.5195215,19.6518077 C19.518791,19.882786 19.4356504,20.1088098 19.2645215,20.2890681 L18.9944473,20.5738958 C18.80592,20.7718866 18.55092,20.8712405 18.2897443,20.8720228 C18.0521427,20.8713057 17.8195217,20.7893583 17.6356428,20.6221385 L15.8774048,19.0238046 C16.0304047,18.7291328 16.1158032,18.4093617 16.1158032,18.0884823 C16.1165336,17.544187 15.8963305,16.9953933 15.4609712,16.5899587 L15.1727017,16.3214293 C14.7643697,15.9409636 14.2346472,15.7509915 13.7119636,15.7517087 C13.6713894,15.7517087 13.6304832,15.7608357 13.5907058,15.7631174 C13.5907058,15.7536644 13.5929637,15.7437551 13.5929637,15.7343022 C13.5936941,15.1900068 12.9381317,14.2349963 12.9381317,14.2349963 L12.6506591,13.9672491 C12.3450576,13.6827473 11.9721865,13.5052923 11.5843741,13.4339713 C11.6643272,13.2117288 11.7095498,12.9803592 11.7095498,12.7485985 C11.7095498,12.2043032 11.4900772,11.6550531 11.0547179,11.2500749 L10.7672453,10.9815455 C10.35805,10.6007538 9.82846024,10.4107166 9.30571031,10.4111077 C9.24468298,10.4111077 9.18445252,10.4232336 9.12375721,10.4285794 C9.10715565,9.90592809 8.8927299,9.38366791 8.47549949,8.9945316 L8.47549949,8.99414044 L8.18882374,8.72678443 C7.77962849,8.34560165 7.25003871,8.15556439 6.72728878,8.15595555 C6.16974198,8.15556439 5.60841002,8.37024456 5.1931718,8.79582369 L4.5101172,9.49560409 L1.48425042,6.96194791 C1.26676998,6.77914707 1.15819577,6.52652465 1.1573989,6.26712217 C1.15812937,6.0497691 1.23350045,5.83697953 1.39420355,5.66030682 L4.58694922,2.14999607 C4.71365233,2.01041811 4.90105074,1.88413949 5.12052337,1.79645507 C5.339996,1.70883583 5.58915221,1.66072349 5.82210531,1.66104945 C6.02497638,1.66104945 6.21536307,1.69710111 6.36763258,1.76157687 L8.12049172,2.49584431 C8.61462056,2.70028919 9.18830408,2.78412724 9.76484307,2.78595264 C10.3420461,2.78406204 10.9149992,2.700224 11.4091944,2.49584431 L13.1612567,1.76190284 C13.4313309,1.64625067 13.838866,1.5745385 14.2441433,1.57598062 C14.692319,1.57336502 15.1412252,1.66443948 15.401604,1.79489044 C15.5669556,1.87566442 15.7238071,1.95233125 15.869436,2.02397823 L14.0825769,3.2571016 C13.5084285,3.65347432 13.1989754,4.2838243 13.1997723,4.91991126 C13.1990418,5.34092689 13.3349754,5.7695049 13.6116238,6.13321599 L13.6108933,6.13243367 L13.8469011,6.44379488 C14.2950768,7.02870542 14.9939361,7.32944019 15.6924634,7.33093962 C16.0869164,7.33093962 16.4887406,7.23308511 16.8468695,7.02218613 L17.9154787,6.39216212 C18.133424,6.26132 18.4625333,6.17865543 18.8028653,6.18015486 C19.2027637,6.17787311 19.6057168,6.29398164 19.8479667,6.46876375 L22.8043062,8.54952498 C23.4622592,9.01226406 24.5339231,9.87059355 25.1277941,10.4107166 L28.5496413,13.5167011 C28.7522468,13.7011317 28.8542468,13.9503641 28.8550437,14.2063766 Z M32.5415861,6.51120432 L27.9830633,11.4597353 L25.91338,9.58152831 C25.2651223,8.99401005 24.1961146,8.13724519 23.47906,7.6316092 L20.5235174,5.55084797 C20.0224159,5.20232682 19.4088887,5.05166607 18.8023341,5.04944951 C18.2861583,5.05094895 17.7661311,5.16138569 17.3172249,5.42378704 L16.2494125,6.05381106 C16.0855883,6.1504921 15.892479,6.19984311 15.6918657,6.20023427 C15.333272,6.20140774 14.9744127,6.03712168 14.7743307,5.76970048 L14.5390534,5.45873043 L14.5382565,5.45794811 C14.4130807,5.29222781 14.354776,5.1063629 14.3539128,4.91821624 C14.3554401,4.6337145 14.4891159,4.35762264 14.7480338,4.17821183 L17.9075764,1.99881377 C18.1807716,1.80466937 18.6667989,1.66848144 19.1284551,1.67187147 C19.4491308,1.67037203 19.7554628,1.73367432 19.9652401,1.83537522 L22.5374859,3.05858927 C22.9760327,3.2653159 23.4709584,3.34987107 23.9688724,3.35104454 C24.6086302,3.34798047 25.2553605,3.21146658 25.7882042,2.89019605 L28.4157664,1.28547325 C28.5834421,1.18272927 28.7847194,1.12959464 28.9945632,1.12959464 C29.3492389,1.12887995 29.7046451,1.28664673 29.9059224,1.54415861 L32.5998908,4.92819075 C32.755215,5.12200919 32.8451969,5.39542814 32.8451969,5.6788216 C32.8456603,5.9957242 32.7316408,6.30754176 32.5415861,6.51120432 Z" id="Shape"></path>
            </g>
        </g>
    </g>
</svg>

<svg width="34" height="22" viewBox="0 0 34 22" xmlns="http://www.w3.org/2000/svg"><title>deal(1)</title><path d="M34 5.678c0-.506-.153-1.02-.488-1.444L30.818.85C30.367.288 29.68.001 28.994 0c-.408 0-.824.103-1.192.328l-2.626 1.604c-.277.173-.75.292-1.208.289-.355.001-.699-.069-.925-.179L20.47.82a3.147 3.147 0 0 0-1.342-.277c-.668.003-1.345.164-1.888.534l-.3.207-1.022-.5c-.498-.24-1.084-.336-1.676-.338-.534.001-1.068.082-1.537.277l-1.752.734c-.285.121-.739.2-1.19.198-.45.002-.903-.077-1.188-.198L6.821.72a2.594 2.594 0 0 0-1-.191c-.39 0-.778.076-1.139.22a2.59 2.59 0 0 0-.96.648L.529 4.908a2.01 2.01 0 0 0 .202 2.91l2.979 2.494-1.413 1.447a2.042 2.042 0 0 0 .072 2.927l.287.267c.27.252.594.412.934.497-.17.308-.264.645-.263.983 0 .544.22 1.094.655 1.499l.287.268c.409.38.94.57 1.462.57.28 0 .562-.055.826-.163.093.369.285.72.586 1l.288.27a2.158 2.158 0 0 0 2.636.222c.104.327.28.636.55.888l.288.269c.409.38.94.57 1.462.57a2.14 2.14 0 0 0 1.534-.64l1.249-1.28 1.696 1.541c.406.37.928.554 1.442.553a2.136 2.136 0 0 0 1.552-.658l.27-.285a2.04 2.04 0 0 0 .475-.843l.657.595c.407.369.928.552 1.442.552.565 0 1.137-.222 1.554-.66l.27-.285c.31-.326.485-.73.54-1.142.173.043.348.073.526.073.566 0 1.136-.222 1.553-.66l.27-.284a2.04 2.04 0 0 0 .564-1.408c0-.156-.022-.311-.058-.465.47-.06.925-.266 1.271-.631l.27-.285a2.044 2.044 0 0 0-.11-2.927l-.506-.459L33.4 7.266c.41-.446.6-1.021.6-1.588zM4.118 14.394a.971.971 0 0 1-.664-.258l-.287-.267a.924.924 0 0 1-.298-.682.92.92 0 0 1 .265-.648l2.893-2.965a.969.969 0 0 1 .699-.29c.241 0 .477.086.664.258l.286.268s.296.43.296.682a.924.924 0 0 1-.17.532L4.677 14.22a.987.987 0 0 1-.56.175zm2.311 2.957a.97.97 0 0 1-.697.29.97.97 0 0 1-.664-.258l-.288-.268a.924.924 0 0 1-.296-.682c0-.237.086-.467.263-.65 0 0 3.857-3.941 3.89-3.979a.968.968 0 0 1 .667-.264.97.97 0 0 1 .664.258l.288.268a.93.93 0 0 1 .296.682.926.926 0 0 1-.264.649L6.429 17.35zm3.162 1.676a.968.968 0 0 1-.697.29.97.97 0 0 1-.664-.258l-.289-.268a.923.923 0 0 1-.084-1.268l2.687-2.752a.966.966 0 0 1 .643-.245.97.97 0 0 1 .664.258l.289.268a.927.927 0 0 1 .032 1.33l-2.581 2.645zm5.104-.29l-1.63 1.67a.97.97 0 0 1-.698.29.97.97 0 0 1-.664-.259l-.287-.268a.927.927 0 0 1-.033-1.33l1.63-1.67a.97.97 0 0 1 .698-.29c.241 0 .478.085.664.258l.288.269a.926.926 0 0 1 .032 1.33zm14.16-4.53a.922.922 0 0 1-.256.639l-.27.285a.97.97 0 0 1-.707.298.968.968 0 0 1-.655-.25l-4.55-4.132-.788.827 4.872 4.43a.933.933 0 0 1 .05 1.331l-.27.285a.972.972 0 0 1-.706.298.97.97 0 0 1-.654-.25l-4.552-4.131-.787.827 4.04 3.668a.924.924 0 0 1 .04 1.317l-.27.284a.97.97 0 0 1-.707.3.972.972 0 0 1-.655-.25l-4.032-3.655h-.001l-.785.828.016.015 2.02 1.83a.923.923 0 0 1 .017 1.288l-.27.285a.969.969 0 0 1-.705.298.968.968 0 0 1-.654-.25l-1.759-1.598a2.04 2.04 0 0 0 .239-.936c0-.544-.22-1.093-.655-1.498l-.288-.269a2.14 2.14 0 0 0-1.461-.57c-.04 0-.082.01-.121.012l.002-.029c0-.544-.655-1.499-.655-1.499l-.287-.268a2.125 2.125 0 0 0-1.067-.533c.08-.222.126-.454.126-.685 0-.545-.22-1.094-.655-1.499l-.288-.268a2.14 2.14 0 0 0-1.461-.57c-.061 0-.122.011-.182.017a2.043 2.043 0 0 0-.649-1.434l-.286-.268a2.142 2.142 0 0 0-1.462-.571 2.14 2.14 0 0 0-1.534.64l-.683.7-3.026-2.534a.902.902 0 0 1-.09-1.302l3.193-3.51c.127-.14.314-.266.534-.354a1.93 1.93 0 0 1 .701-.135c.203 0 .393.036.546.1l1.752.735c.495.204 1.068.288 1.645.29.577-.002 1.15-.086 1.644-.29l1.752-.734c.27-.116.678-.187 1.083-.186.448-.003.897.088 1.158.219l.467.229-1.786 1.233a1.999 1.999 0 0 0-.471 2.876h-.001l.236.31c.448.586 1.147.886 1.845.888.395 0 .797-.098 1.155-.309l1.068-.63c.218-.13.548-.213.888-.212.4-.002.803.114 1.045.289l2.956 2.08c.658.463 1.73 1.322 2.324 1.862l3.422 3.106a.928.928 0 0 1 .305.69zm3.687-7.696l-4.559 4.949-2.07-1.878a30.349 30.349 0 0 0-2.434-1.95L20.524 5.55c-.502-.349-1.115-.5-1.722-.502-.516.002-1.036.112-1.485.375l-1.068.63a1.1 1.1 0 0 1-.557.146c-.359.001-.718-.163-.918-.43l-.235-.311v-.001a.891.891 0 0 1-.185-.54.899.899 0 0 1 .394-.74l3.16-2.18c.273-.193.759-.33 1.22-.326.321-.002.627.062.837.163l2.572 1.224c.439.206.934.29 1.432.292.64-.003 1.286-.14 1.82-.46l2.627-1.606c.167-.102.369-.155.579-.155.354-.001.71.157.91.414L32.6 4.928c.155.194.245.467.245.75 0 .318-.113.63-.303.833z" fill="#9A9A9F"/></svg>
